X:11
T:Mazurka du Bas-pays
A:Morvan
O:France
M:3/4
K:G
BG|:D2 DB BA|c2A2 AF|D2 DA AG|B2G2 BG|D2 DB BA|
c2A2 AF|D2 dc BA|1G4 BG:|2G4 Bc|
|:d2 dB cd|e2e2 AB|cc cA Bc|d2d2 GA|B2 BG AB|
c2c2 AF|D2 dc BA|1G4 Bc:|2G2 GA Bc|
|:B2 GA Bc|B2 dB dB|A2 dc BA|(3BdB GA Bc|(3BdB GA Bc|
B2 dB dB|A2 dc BA|1G2 GA Bc:|2G4 BG||
